X:1
T:The Hippopotamus Song
M:3/4
L:1/4
K:G
 D| G G G| G/2D/2 B, G,| A, B, C| B,2 B,/2A,/2| G, G G| F G E| D3-|\
 D2 D| G G G| G/2D/2 B, G,| A, B, C| B,2 B/2A/2| G F E| A F E| D3-|\
 D2 E| A A A| E E E| A A A| E2 A| c B A| A B ^G| A3-| A2 D| E F G|\
 F D D| E F G| F D D| c B A| G F E| F- G- F-| E- D- F| G3| D3| C B, A,|\
 D3| G F G| E A G| F E F| D2 D| B/2 B3/2 A| G/2 D3/2- D| c c B| A/2 E3/2 D|\
 E F G| D B, G,| A,3-| A, B, A,| G,3-| G, z|| z3|
